images/nav-logo.svg

<svg fill="none" height="43" viewBox="0 0 50 43" width="50" xmlns="http://www.w3.org/2000/svg"><path d="m3.21644 13.5863c2.04109.4384 4.76164 1.0822 7.67126 1.9178 1.052.3069 2.063.621 3.0328.9425.3306-.7799.6777-1.5562 1.0411-2.3288-4.8936-1.5969-9.89304-2.8493-14.9616-3.7479 0 0 3.51233 21.2109 11.011 28.7123l.0739.0685c-2.46572-5.8767-4.56435-12.8164-5.96435-17.9836-.83836-2.8794-1.47124-5.5507-1.90411-7.5808z" fill="#e82169"/><path d="m23.6959 42.1425c-2.2247.1233-7.252-1.2192-10.8904-4.8548-2.7644-2.7671-5.40822-8.3287-7.67398-16.0822-.00121-.0127-.00121-.0256 0-.0383 1.4 5.1671 3.48768 12.1068 5.96438 17.9835 1.6263 1.6035 3.6611 2.7302 5.8831 3.2577 2.2221.5275 4.5462.4355 6.7196-.2659z" fill="#b31f55"/><g fill="#563a5f"><path d="m3.21637 13.5862c.43288 2.0192 1.06575 4.7014 1.91781 7.5809-1.22192-4.4548-1.91781-7.5809-1.91781-7.5809z"/><path d="m3.21644 13.5863c2.04109.4384 4.76164 1.0822 7.67126 1.9178 1.052.3069 2.063.621 3.0328.9425.3306-.7799.6777-1.5562 1.0411-2.3288-4.8936-1.5969-9.89304-2.8493-14.9616-3.7479 0 0 3.51233 21.2109 11.011 28.7123l.0739.0685c-2.46572-5.8767-4.56435-12.8164-5.96435-17.9836-.83836-2.8794-1.47124-5.5507-1.90411-7.5808z"/><path d="m23.6959 42.1425c-2.2247.1233-7.252-1.2192-10.8904-4.8548-2.7644-2.7671-5.40822-8.3287-7.67398-16.0822-.00121-.0127-.00121-.0256 0-.0383 1.4 5.1671 3.48768 12.1068 5.96438 17.9835 1.6263 1.6035 3.6611 2.7302 5.8831 3.2577 2.2221.5275 4.5462.4355 6.7196-.2659z"/><path d="m24.9945 4.54797c-1.1205 1.73425-2.5698 4.07946-4.0137 6.70683 2.2904-3.99724 4.0137-6.70683 4.0137-6.70683z"/><path d="m24.9946 4.54794c1.1315 1.75343 2.6027 4.13151 4.0575 6.78626.5288.9617 1.0192 1.8987 1.4794 2.811.7863-.3178 1.5836-.6219 2.3836-.9096-2.3287-4.59095-4.9753-9.01359-7.9205-13.2356 0 0-12.5151 17.4794-12.5151 28.0877v.1013c2.4027-5.9068 5.8356-12.2904 8.4931-16.9342 1.4521-2.6274 2.9014-4.97261 4.022-6.70686z"/><path d="m19.2821 39.2219c-1.6438-1.4876-4.2657-5.9917-4.2657-11.1342 0-3.9096 2.0575-9.7206 5.9452-16.8.0053-.0115.0118-.0225.0192-.0329-2.6631 4.6576-6.0959 11.0274-8.4932 16.9343.0173 2.2847.6603 4.5211 1.8591 6.4661 1.1988 1.9451 2.9076 3.5245 4.9409 4.5667z"/></g><path d="m21.2904 21.3534c-.47.4638-.9016.965-1.2904 1.4987 7.0356-8.7042 26.7726-9.2959 26.7726-9.2959-.4384 2.0411-1.0794 4.7616-1.9178 7.6712-.3069 1.0521-.621 2.063-.9425 3.0329 5.1891-4.0055 6.0877-13.9178 6.0877-13.9178s-21.2082 3.5096-28.7096 11.0109z" fill="#080809"/><path d="m20.0001 22.8521c-1.1561 1.5923-1.9202 3.435-2.2301 5.3783s-.1569 3.9322.4465 5.8052c-.1205-2.2246 1.222-7.252 4.8576-10.8877 2.7644-2.7671 8.326-5.4219 16.0822-7.6712 2.8931-.8411 5.589-1.4794 7.6164-1.9178.011-.0027-19.726.589-26.7726 9.2932z" fill="#080809"/></svg>

<svg width="50" height="43" viewBox="0 0 50 43" fill="none" xmlns="http://www.w3.org/2000/svg">
<path d="M3.21644 13.5863C5.25753 14.0247 7.97808 14.6685 10.8877 15.5041C11.9397 15.811 12.9507 16.1251 13.9205 16.4466C14.2511 15.6667 14.5982 14.8904 14.9616 14.1178C10.068 12.5209 5.06856 11.2685 0 10.3699C0 10.3699 3.51233 31.5808 11.011 39.0822L11.0849 39.1507C8.61918 33.274 6.52055 26.3343 5.12055 21.1671C4.28219 18.2877 3.64931 15.6164 3.21644 13.5863Z" fill="#E82169"/>
<path d="M23.6959 42.1425C21.4712 42.2658 16.4439 40.9233 12.8055 37.2877C10.0411 34.5206 7.39728 28.959 5.13152 21.2055C5.13031 21.1928 5.13031 21.1799 5.13152 21.1672C6.53152 26.3343 8.6192 33.274 11.0959 39.1507C12.7222 40.7542 14.757 41.8809 16.979 42.4084C19.2011 42.9359 21.5252 42.8439 23.6986 42.1425H23.6959Z" fill="#B31F55"/>
<path d="M3.21637 13.5862C3.64925 15.6054 4.28212 18.2876 5.13418 21.1671C3.91226 16.7123 3.21637 13.5862 3.21637 13.5862Z" fill="#563A5F"/>
<path d="M3.21644 13.5863C5.25753 14.0247 7.97808 14.6685 10.8877 15.5041C11.9397 15.811 12.9507 16.1251 13.9205 16.4466C14.2511 15.6667 14.5982 14.8904 14.9616 14.1178C10.068 12.5209 5.06856 11.2685 0 10.3699C0 10.3699 3.51233 31.5808 11.011 39.0822L11.0849 39.1507C8.61918 33.274 6.52055 26.3343 5.12055 21.1671C4.28219 18.2877 3.64931 15.6164 3.21644 13.5863Z" fill="#563A5F"/>
<path d="M23.6959 42.1425C21.4712 42.2658 16.4439 40.9233 12.8055 37.2877C10.0411 34.5206 7.39728 28.959 5.13152 21.2055C5.13031 21.1928 5.13031 21.1799 5.13152 21.1672C6.53152 26.3343 8.6192 33.274 11.0959 39.1507C12.7222 40.7542 14.757 41.8809 16.979 42.4084C19.2011 42.9359 21.5252 42.8439 23.6986 42.1425H23.6959Z" fill="#563A5F"/>
<path d="M24.9945 4.54797C23.874 6.28222 22.4247 8.62743 20.9808 11.2548C23.2712 7.25756 24.9945 4.54797 24.9945 4.54797Z" fill="#563A5F"/>
<path d="M24.9946 4.54794C26.1261 6.30137 27.5973 8.67945 29.0521 11.3342C29.5809 12.2959 30.0713 13.2329 30.5315 14.1452C31.3178 13.8274 32.1151 13.5233 32.9151 13.2356C30.5864 8.64465 27.9398 4.22201 24.9946 0C24.9946 0 12.4795 17.4794 12.4795 28.0877C12.4795 28.1205 12.4795 28.1562 12.4795 28.189C14.8822 22.2822 18.3151 15.8986 20.9726 11.2548C22.4247 8.6274 23.874 6.28219 24.9946 4.54794Z" fill="#563A5F"/>
<path d="M19.2821 39.2219C17.6383 37.7343 15.0164 33.2302 15.0164 28.0877C15.0164 24.1781 17.0739 18.3671 20.9616 11.2877C20.9669 11.2762 20.9734 11.2652 20.9808 11.2548C18.3177 15.9124 14.8849 22.2822 12.4876 28.1891C12.5049 30.4738 13.1479 32.7102 14.3467 34.6552C15.5455 36.6003 17.2543 38.1797 19.2876 39.2219H19.2821Z" fill="#563A5F"/>
<path d="M21.2904 21.3534C20.8204 21.8172 20.3888 22.3184 20 22.8521C27.0356 14.1479 46.7726 13.5562 46.7726 13.5562C46.3342 15.5973 45.6932 18.3178 44.8548 21.2274C44.5479 22.2795 44.2338 23.2904 43.9123 24.2603C49.1014 20.2548 50 10.3425 50 10.3425C50 10.3425 28.7918 13.8521 21.2904 21.3534Z" fill="#080809"/>
<path d="M20.0001 22.8521C18.844 24.4444 18.0799 26.2871 17.77 28.2304C17.4601 30.1737 17.6131 32.1626 18.2165 34.0356C18.096 31.811 19.4385 26.7836 23.0741 23.1479C25.8385 20.3808 31.4001 17.726 39.1563 15.4767C42.0494 14.6356 44.7453 13.9973 46.7727 13.5589C46.7837 13.5562 27.0467 14.1479 20.0001 22.8521Z" fill="#080809"/>
</svg>
